X:1
T:Baca, LM
T:Baca, LM
T:William Batchelder Bradbury, circa 1858
T:Public Domain Courtesy of the Cyber Hymnal™
C:William Batchelder Bradbury, circa 1858
Z:Public Domain
Z:Courtesy of the Cyber Hymnal™
%%score 1 ( 2 3 )
L:1/8
M:3/2
K:E
V:1 treble 
V:2 bass 
V:3 bass 
V:1
 [EG]2 [EG]2 [EG]2 | [EG]6 [CE]2 [CE]2 [CE]2 | [DF]6 [DF]2 [DF]2 [EG]2 | [FA]6 [FA]2 [EG]2 [DF]2 | %4
 [EG]6 [GB]2 [GB]2 [GB]2 | [Ac]6 [Ac]2 [GB]2 [EG]2 | [GB]6 [EG]2 [EG]2 [EG]2 | %7
 [EA]6 [EA]2 [EG]2 E2 | [DF]6 [DF]2 [DF]2 [EG]2 | [EA]2 [CF]2 [B,E]4 [B,D]4 | [B,E]6 |] %11
V:2
 [E,B,]2 [E,B,]2 [E,B,]2 | [C,C]6 [C,G,]2 [C,G,]2 [C,G,]2 | [B,,B,]6 [B,,B,]2 [B,,B,]2 [B,,B,]2 | %3
 [B,,B,]6 [B,,B,]2 [B,,B,]2 [B,,B,]2 | [E,B,]6 E,2 E,2 E,2 | E,6 E,2 E,2 E,2 | %6
 E,6 [E,B,]2 [E,B,]2 [E,B,]2 | [E,C]6 [E,C]2 [E,B,]2 [E,G,]2 | [B,,B,]6 [B,,B,]2 [B,,B,]2 [E,B,]2 | %9
 [A,,C]2 [A,,A,]2 [B,,G,]4 [B,,F,]4 | [E,G,]6 |] %11
V:3
 x6 | x12 | x12 | x12 | x6 E,2 E,2 E,2 | E,6 E,2 E,2 E,2 | E,6 x6 | x12 | x12 | x12 | x6 |] %11

